!!!OTL: Am Grabe meines Vaters.
!!!OTL-incipit:FRIEDE SEI UM DIESEN GRABSTEIN HER
!!!COM: J. R. Zumsteeg
!!!ARE: Europa, Mitteleuropa, Deutschland
!!!SCT: F0352
!!!TXL: @@DE
!!!YEM: Copyright 1995, estate of Helmut Schaffrath.
**kern	**text
*ICvox	*
*clefG2	*
*M4/4	*
*met(c)	*
*k[b-e-a-]	*
*E-:	*
!LO:TX:a:t=Langſam und feierlich.	!
!LO:TX:a:t=P:only the highest voice encoded:problem	!
{4e-	Frie-
4f	-de
=1	=1
4.g	ſei
8g	um
8b-qq	-
4.a-	die-
8f	-ſen
=2	=2
4e-	Grabſtein
4d	.
4c	her,
4r}	.
=3	=3
{4.cc/	ſanf-
8cc/	-ter
8b-/L	Frie-
8ee-J	.
8gL	-de
8b-J	.
=4	=4
4b-qq	.
2a-T	Got-
4g	-tes!
4r}	.
=5	=5
{4.f	Ach,
8ee-	ſie
(8ee-L	ha-
8ddJ)	.
(8ccL	-ben
8b-J)	.
=6	=6
(8b-L	ei-
8anJ)	.
8gL	-nen
8fJ	.
4b-	gu-
4cc}	-ten
=7	=7
{4dd	Mann
(8ee-L	be-
8ccJ)	.
(4b-	-gra-
4cc)	.
=8	=8
4b-	-ben,
4r	.
4r}	.
{8b-L	und
8bnJ	.
=9	=9
2cc	mir,
8r	.
8a-	mir
8f	war
8b-	er
=10	=10
4g	mehr!
4r;}	.
{4e-	Träuſ-
4f	-te
=11	=11
4.g	mir
8g	von
8b-qq	.
4.a-	Se-
8f	-gen
=12	=12
4e-	die-
4d	-ſer
4c}	Mann,
{8c	wie
8cc	ein
=13	=13
4.cc	mil-
8cc	-der
(8b-L	Stern
8ee-J)	.
(8g\L	aus
8b-J)	.
=14	=14
4.b-/	beſ-
8a-	-ſern
8a-qq	.
4g	Wel-
4g}	-ten,
=15	=15
{4.f	und
8ee-	ich
(8ee-L	kann's
8ddJ)	.
(8ccL	ihm
8b-J)	.
=16	=16
(8b-L	nicht
8anJ)	.
(8gL	ver-
8fJ)	.
4b-	-gel-
4cc}	-ten,
=17	=17
{4dd	was
(8ee-L	er
8ccJ)	.
4b-	mir
4cc	ge-
=18	=18
4b-	-than.
4r;}	.
{4e-	Er
4f	entſchlief,
=19	=19
4.g	.
8g	ſie
8b-qq	.
4.a-	gru-
8f	-ben
=20	=20
4e-	ihn
4d	hier
4c	ein.
4r;	.
=21	=21
2r}	.
{4g	Lei-
4g	-ſer,
=22	=22
4g	ſü-
4f	-ßer
4e-	Troſt
4d	von
=23	=23
4g	Gott
4f	ge-
4e-	-ge-
4d}	-ben,
=24	=24
{4.g	und
8cc/	ein
(8cc/L	Ahnen
8a-J)	.
4a-	.
=25	=25
8g	von
8g	dem
8g	ew'-
8cc	-gen
(8ccL	Le-
8a-J)	.
4a-}	-ben
=26	=26
{4.g	duft'
8cc	um
4.cc	ſein
8f#	Ge-
=27	=27
4g	-bein.
4r;}	.
{4e-	Bis
4f	ihn
=28	=28
4.g	Je-
8g	-us
8b-qq	.
4.a-	Chri-
8f	-ſtus,
=29	=29
4e-	groß
4d	und
4c	hehr,
4r}	.
=30	=30
{4.cc/	frennd-
8cc/	-lich
(8b-/L	wird
8ee-J)	.
(8gL	er
8b-J)	.
=31	=31
4b-qq	.
2a-	we-
4g	-cken:
4r}	.
=32	=32
{4.f	Ach,
8ee-	ſie
(8ee-L	ha-
8ddJ)	.
(8ccL	-ben
8b-J)	.
=33	=33
(8b-L	ei-
8anJ)	.
(8gL	-nen
8fJ)	.
4b-	gu-
4cc}	-ten
=34	=34
{4dd	Mann
(8ee-L	be-
8ccJ)	.
(4b-	-gra-
4cc)	.
=35	=35
4b-	-ben,
4r	.
4r}	.
{8b-L	und
8bnJ	.
=36	=36
2cc	mir,
8r	.
8a-	mir
8f	war
8b-/	er
=37	=37
4g	mehr!
4r;}	.
==	==
!!!AGN: Jugend - Lied, Toten - Klage, Trauer
!!!ONB: ESAC (Essen Associative Code) Database: FINK
!!!AMT: simple quadruple
!!!AIN: vox
!!!EED: Helmut Schaffrath
!!!EEV: 1.0
!!!GTL: Jugendlieder
!!Text: M. Claudius
!!!source: Musikalischer Hausschatz der Deutschen. Eine Sammlung von über 1000 Liedern und Gesängen mit Singstimmen und Klavierbegleitung. Leipzig, Litterarisches Verlags-Haus.
!!!page: 208
!!!URL-scan: https://www.digitale-sammlungen.de/en/view/bsb11144622?page=206,207
!!!ENC: Anna Maria Matuszewska
!!!EEV: 2024/08/09
*-	*-
